X:2
T:Tom Moylan's Frolics
R:reel
D:Brian Conway, First Through the Gate
Z:Paul Stewart Cranford (P.S.C.), <http://www.cranfordpub.com>
L:1/8
Q:333
M:C|
K:Dmix
Ad ~d2 eddc|Addf abag|ed ~d2 ed c2|AdcA Gc (E/F/G)|
Ad ~d2 eddc|Addf abag|ed ~d2 edcd|AdcA (3GAG EF||
(3ABA FA d2 Bd|~c3 G EFGc|(3ABA FA dfed|cAGE ADDE|
F3 A d2 Bd|~c3 G EFGc|ABFA dfed|cAGE ADD z|]
